X: 75
T:Dror Yikra
C:Moshe Ben Mush 1970
D: Israeli Folk Dance Party (Tikva 145)
L:1/8
S: H.Kirsch : Songs and Folk Dances bk 10 (c) 1969 NEGEN
O: Israel
I: choreographer Moshiko, E. Gamliel
F: http://www.youtube.com/watch?v=bZ8L9rlW308
F: http://www.youtube.com/watch?v=aGjtJugzg34
M:2/4
Q:1/4=80
K:C
 D                                           |"Em" EE/2D/2 EF/2E/2 |\
 "Am" A>B "Em" G2                            |"Dm" F/2E/2F "Em" ED |
 EE/2D/2 EF/2E/2                             |\
M:3/4
 "Am" A/2G/2A/2B/2 "Em" G2 "Dm" F/2E/2F/2E/2 |"Em" E4-E D          |\ 
L:1/8
M:2/4
 "Em" EE/2D/2 EF/2E/2                        |"Am" A>B "Em" G2     |\
 "Dm" F/2E/2F "Em" ED                        | EE/2D/2 EF/2E/2     |
M:3/4
 "Am" A/2G/2A/2B/2 "Em" G2 "Dm" F/2E/2F/2E/2 |\
L:1/8
M:2/4
 "Em" E4                                     |\
 z "Am" E/2B/2 "Gm" BB                       | B2 B/2A/2c/2B/2     |\
 "Am" A2 "Em" G>A                            | BA GF               |
 E>F ED                                      | EE/2D/2 EF/2E/2     |\
 "Am" A2 "Em" G2                             |"Dm" F/2E/2F "Em" ED |\
 EE/2D/2 EF/2E/2                             |
M:3/4
 "Am" A/2G/2A/2B/2 "Em" G2 "Dm" F/2E/2F/2E/2 |\
L:1/8
M:2/4
 "Em" E4-                                    |E4                   |



